proprietary/assets/icons/energie-en-chemie/erlenmeyer-chemie.svg

<svg height="64" viewBox="0 0 64 64" width="64" xmlns="http://www.w3.org/2000/svg"><path d="m0 0h64v64h-64z" fill="none"/><circle cx="32.5" cy="35.5" r="2.5"/><circle cx="29" cy="8" r="3"/><circle cx="37" cy="3" r="2"/><path d="m51.8221 46.4884-11.8221-17.8975v-11.9348c.7957-.2001 1.9213-.4882 2.8638-.7494 1.6755-.4642 1.3517-2.9025-.0207-2.9042h-21.6862c-1.3724.0017-1.6962 2.4399-.0207 2.9042.9425.2612 2.0681.5493 2.8638.7494v11.9348l-11.8221 17.8975c-4.3915 6.6483.3763 15.5116 8.344 15.5116h22.9562c7.9677 0 12.7355-8.8633 8.344-15.5116zm-36.3066 2.2047c2.6146-3.9584 10.1398-15.3508 12.4845-18.9004 0-6.7978 0-6.0407 0-12.7927h8v12.7927c.8929 1.3518.4788.7249 7.4029 11.2073h-19.1602s-1.1216 1.3107-2.5206 3.0224c1.275.1141 2.2779 1.173 2.2779 2.4776 0 1.3807-1.1193 2.5-2.5 2.5-1.1075 0-2.0359-.7249-2.3643-1.7224-.4557.5945-.8921 1.1778-1.2782 1.7183-1.9458 2.7241-1.5806 5.6238-1.1245 7.2527 0 0-.087.3755-.4795-.0264s-.7369-.8616-1.0157-1.3799c-1.0635-1.9771-.9597-4.276.2777-6.1492zm20.9845 5.4319c-1.4498 0-2.625-1.1752-2.625-2.625s1.1752-2.625 2.625-2.625 2.625 1.1752 2.625 2.625-1.1752 2.625-2.625 2.625z"/></svg>

<?xml version="1.0" encoding="utf-8"?>
<!-- Generator: Adobe Illustrator 17.1.0, SVG Export Plug-In . SVG Version: 6.00 Build 0)  -->
<svg version="1.2" baseProfile="tiny" xmlns="http://www.w3.org/2000/svg" xmlns:xlink="http://www.w3.org/1999/xlink" x="0px"
	 y="0px" width="64px" height="64px" viewBox="0 0 64 64" xml:space="preserve">
<g id="Box">
	<rect fill="none" width="64" height="64"/>
</g>
<g id="Icon">
	<g>
		<circle cx="32.5" cy="35.5" r="2.5"/>
		<circle cx="29" cy="8" r="3"/>
		<circle cx="37" cy="3" r="2"/>
		<path d="M51.8221,46.4884L40,28.5909V16.6561c0.7957-0.2001,1.9213-0.4882,2.8638-0.7494
			c1.6755-0.4642,1.3517-2.9025-0.0207-2.9042H21.1569c-1.3724,0.0017-1.6962,2.4399-0.0207,2.9042
			c0.9425,0.2612,2.0681,0.5493,2.8638,0.7494v11.9348L12.1779,46.4884C7.7864,53.1367,12.5542,62,20.5219,62
			c14.6172,0,8.3451,0,22.9562,0C51.4458,62,56.2136,53.1367,51.8221,46.4884z M15.5155,48.6931
			C18.1301,44.7347,25.6553,33.3423,28,29.7927C28,22.9949,28,23.752,28,17c5.0902,0,2.91,0,8,0c0,6.7315,0,6.013,0,12.7927
			c0.8929,1.3518,0.4788,0.7249,7.4029,11.2073H24.2427c0,0-1.1216,1.3107-2.5206,3.0224C22.9971,44.1365,24,45.1954,24,46.5
			c0,1.3807-1.1193,2.5-2.5,2.5c-1.1075,0-2.0359-0.7249-2.3643-1.7224c-0.4557,0.5945-0.8921,1.1778-1.2782,1.7183
			c-1.9458,2.7241-1.5806,5.6238-1.1245,7.2527c0,0-0.087,0.3755-0.4795-0.0264s-0.7369-0.8616-1.0157-1.3799
			C14.1743,52.8652,14.2781,50.5663,15.5155,48.6931z M36.5,54.125c-1.4498,0-2.625-1.1752-2.625-2.625s1.1752-2.625,2.625-2.625
			s2.625,1.1752,2.625,2.625S37.9498,54.125,36.5,54.125z"/>
	</g>
</g>
</svg>
